X: 33397
T: Quickenbeam, The
R: reel
M: 4/4
K: Amixolydian
~a3e~g3e|agec decA|zeec d2ed|cAAE GA (3cde|
~a3e~g3e|agec d2ed|cdec g3e|decA GA (3cde|
~a3e~g3e|agec decA|zeec d2ed|cAAE G2AG|
E3G DEGA|B2AG ABdg|e4e4|e2dcdc.A2||
E3G DEGA|BGGB DG (3Bcd|cAdc ~A3E|GABzB2AG|
E3G DEGA|B2GB DG (3Bcd|cdec d2ed|1 cAAE GA (3BAG:|2 cAAE GA (3cde||

